X:1
T:Title
%%score { 1 | ( 2 3 ) }
L:1/8
M:3/4
K:C
V:1 treble nm="Grand Piano"
V:2 bass 
V:3 bass 
V:1
 z2 z2[Q:1/4=100] [EG]2 | [EG]3 [EA] [EG][EA] | [FG]4 G2 | G3 D EF | E4 [EG]2 | [Ec]3 [EB] [EA]E | %6
 G>D D3 [GB] | [^Fd]3 [EFc] [DFB][CFA] | [B,G]4 G2 | G3 G [B,FG][B,FG] | [CEG]4 G2 | d3 d ^cc | %12
[M:2/4] d4 |[M:1/4] [CEG]2 |[M:3/4] [G,CE][G,DF] .[A,EG]2 [CFA]2 | [EG]4 [Ec]2 | %16
 [^Fc]B [EA]2 [DA]2 | [B,DG]4 [G,EG]2 | [G,CE][G,B,F] [G,CG]2 [CEG]2 | [CFA][FB] [Ec]2 B2 | %20
 [Gc][CFA] [B,DG]2 [DFG]2 |[M:2/4] [CEG]4 |] %22
V:2
 z2 z2 [C,C]2 | [C,C]3 [C,C] [C,A,][C,A,] | [D,B,]4[K:treble] [G,B,F]2 | %3
 [G,B,F]3 [G,B,] [G,C][G,B,D] | [C,G,C]4 [C,G,]2 | [A,,A,]3 [B,,^G,] [C,A,][^C,_B,] | %6
 [D,B,D]>[D,G,B,] [D,G,B,]3 [D,D] | [D,A,]3 D, D,D, | G,4 G,2 | G,3 G, G,G, | C,4 G,2 | %11
 [G,B,F]3 [G,B,F] [G,_B,E][G,B,E] |[M:2/4] [G,B,F]4 |[M:1/4][K:bass] C,2 |[M:3/4] C,C, z C F,2 | %15
 [C,C]4 [C,C]2 | [D,A,][G,D] [C,G,]2 ^F,C | G,,4 C,2 | C,D, E,2 C,2 | F,[D,G,] [C,G,]2 [G,D]2 | %20
 [E,G,]G, G,2 G,,2 |[M:2/4] C,4 |] %22
V:3
 x6 | x6 | x4[K:treble] x2 | x6 | x6 | x6 | x6 | x6 | x6 | x6 | x6 | x6 |[M:2/4] x4 | %13
[M:1/4][K:bass] x2 |[M:3/4] z2 C,2 z2 | x6 | z2 z2 D,2 | x6 | x6 | x6 | x6 |[M:2/4] x4 |] %22

